X: 1808
T: the King of The Rath   #2
R: jig, march
%S: s:3 b:25(8+9+8)
B: O'Neill's 1850 #1808
Z: Bob Safranek, rjs@gsp.org
N: Compacted via repeats and multiple endings [JC]
M: 6/8
L: 1/8
K: Gm
|: B2d dcB | ABA cA^F | GAG G2d |1,3 dcB cAF :|2,4 cA^F G3 :| B2B B2d | c2c c2e | d2d d2=e |
|  f2f f3 || d2d d2e | c2c c2d | B2d dcB | ABA cBA || GAG G2d | dcB cAF | BBB B2d | ccc c2e ||
|| ddd d2=e | fff f3 | ddd d2e | ccc c2d || BBB B2d | dcB cA^F | GAG G2d | cA^F G3 |]
